packages/vibrant-icons/assets/icons/Infinity/Thin.svg

<svg width="24" height="24" viewBox="0 0 24 24" fill="none" xmlns="http://www.w3.org/2000/svg"><path d="M18.1649 17.1004C16.0199 17.1004 14.6349 15.7354 13.1649 14.2904L11.9999 13.1454L10.8349 14.2904C9.3649 15.7354 7.9799 17.1004 5.8349 17.1004C2.9749 17.1004 0.649902 14.8104 0.649902 12.0004C0.649902 9.19039 2.9749 6.90039 5.8349 6.90039C7.9899 6.90039 9.3799 8.27039 10.8499 9.72539L11.9999 10.8554L13.1499 9.72539C14.6199 8.27539 16.0149 6.90039 18.1649 6.90039C21.0249 6.90039 23.3499 9.19039 23.3499 12.0004C23.3499 14.8104 21.0249 17.1004 18.1649 17.1004ZM18.1649 8.60039C16.7799 8.60039 15.8099 9.48539 14.3399 10.9354L13.2599 12.0004L14.3549 13.0804C15.8149 14.5204 16.7849 15.4004 18.1649 15.4004C20.0849 15.4004 21.6499 13.8754 21.6499 12.0004C21.6499 10.1254 20.0849 8.60039 18.1649 8.60039ZM5.8349 8.60039C3.9149 8.60039 2.3499 10.1254 2.3499 12.0004C2.3499 13.8754 3.9149 15.4004 5.8349 15.4004C7.2149 15.4004 8.1799 14.5204 9.6449 13.0804L10.7399 12.0004L9.6599 10.9354C8.1949 9.48539 7.2249 8.60039 5.8349 8.60039Z" fill="#0C0C0C"/></svg>

<svg xmlns="http://www.w3.org/2000/svg" width="24" height="24" fill="none"><path fill="#0C0C0C" d="M18.165 17.1c-2.145 0-3.53-1.365-5-2.81L12 13.145l-1.165 1.145c-1.47 1.445-2.855 2.81-5 2.81C2.975 17.1.65 14.81.65 12s2.325-5.1 5.185-5.1c2.155 0 3.545 1.37 5.015 2.825l1.15 1.13 1.15-1.13c1.47-1.45 2.865-2.825 5.015-2.825 2.86 0 5.185 2.29 5.185 5.1s-2.325 5.1-5.185 5.1m0-8.5c-1.385 0-2.355.885-3.825 2.335L13.26 12l1.095 1.08c1.46 1.44 2.43 2.32 3.81 2.32 1.92 0 3.485-1.525 3.485-3.4s-1.565-3.4-3.485-3.4m-12.33 0c-1.92 0-3.485 1.525-3.485 3.4s1.565 3.4 3.485 3.4c1.38 0 2.345-.88 3.81-2.32L10.74 12l-1.08-1.065C8.195 9.485 7.225 8.6 5.835 8.6"/></svg>
